X:1
T: Thady you Gander
C:
R:Jig
Q:180
K:A
M:6/8
L:1/16
|:c4A2 B4A2|c4A2 B4A2|F2B2B2 B2A2B2|F2B2B2 B2A2B2|
c4A2 B4A2|c4A2 B4A2|D2A2A2 A2G2A2|E2A2A2 A4d2|
c2d2e2 B2c2d2|c2d2e2 B4A2|F2B2B2 B2A2B2|F2B2B2 B4d2|
c2d2e2 B2c2d2|e2f2g2 a4A2|E2A2A2 A2G2A2|E2A2A2 A6:|
